!!!!SEGMENT: Any1005d-Missa_Spes_salutis-Sanctus--s_Hertogenbosch_157.krn
!!!id: Any1005d
!!!OTL: Sanctus
!!!AGN: Mass; Sanctus
!!!voices: 2-4
!!!COM: Anonymous
!!!OPR: Missa Spes salutis ('s-Hertogenbosch 157)
**kern	**kern	**kern	**kern
*part4	*part3	*part2	*part1
*staff4	*staff3	*staff2	*staff1
*I"Bassus	*I"Tenor	*I"Altus	*I"Superius
*I'B	*I'T	*I'A	*I'S
*clefF4	*clefGv2	*clefG2	*clefG2
*k[]	*k[]	*k[]	*k[]
*C:	*C:	*C:	*C:
*M2/1	*M2/1	*M2/1	*M2/1
*met(C|)	*met(C|)	*met(C|)	*met(C|)
!!section: Sanctus
!!!OMD: Sanctus
=1	=1	=1	=1
0r	0e	0r	0r
=2	=2	=2	=2
1r	1d	0r	0r
[1A	2.c	.	.
.	4d	.	.
=3	=3	=3	=3
1A]	2e	0r	0r
.	2c	.	.
1G	2d	.	.
.	2e	.	.
=4	=4	=4	=4
2.F	2A	0r	0r
.	1c	.	.
4G	.	.	.
2A	.	.	.
2F	2d	.	.
=5	=5	=5	=5
2G	2e	0r	1r
2.A	2f	.	.
.	4e	.	[1ee
4B	4d	.	.
[2c	4e	.	.
.	4f	.	.
=6	=6	=6	=6
2c]	2g	0r	1ee]
4B-X	2.a	.	.
4A	.	.	.
1B-i	.	.	1dd
.	4f	.	.
.	2g	.	.
=7	=7	=7	=7
1.A	2c	0a	2.cc
.	2.e	.	.
.	.	.	4dd
.	.	.	2ee
.	4c	.	.
2A	[2f	.	2cc
=8	=8	=8	=8
2B	2f]	1g	2dd
2c	2e	.	2ee
2.d	2f	2.f	2a
.	4e	.	2b
8cL	4d	4g	.
8BJ	.	.	.
=9	=9	=9	=9
2A	2e	2a	2cc
2d	2d	2f	2dd
2c	2e	2g	2g
2A	[2f	2a	2cc
=10	=10	=10	=10
1B-i	2f]	4d	4b-X
.	.	4e	4a
.	4e	4f	1dd
.	4d	4g	.
1A	1e	1a	.
.	.	.	2cc#i
=11	=11	=11	=11
2r	2d	2.f	1dd
2.D	2.f	.	.
.	.	4d	.
.	.	4f	1r
4E	4e	4g	.
4F	2d	4a	.
4G	.	4b	.
=12	=12	=12	=12
4A	2.c	2cc	0ee
4B	.	.	.
1c	.	4b	.
.	4d	4a	.
.	2e	2g	.
4B	2c	[2a	.
4A	.	.	.
=13	=13	=13	=13
1B-i	1d	4a]	1dd
.	.	8gL	.
.	.	8fJ	.
.	.	2g	.
[1A	1e	2c	2.cc
.	.	[2e	.
.	.	.	4dd
=14	=14	=14	=14
1A]	0r	4e]	2ee
.	.	4c	.
.	.	1f	2cc
1G	.	.	2dd
.	.	2e	2ee
=15	=15	=15	=15
2F	0a	2f	2a
1A	.	4e	1cc
.	.	4d	.
.	.	2c	.
4G	.	[2d	4b
4F	.	.	4a
=16	=16	=16	=16
1E	1g	2d]	2b
.	.	2c	2cc
2r	[1f	[1d	2.a
[2D	.	.	.
.	.	.	4f
=17	=17	=17	=17
4D]	1f]	1d]	4a
4E	.	.	4g
4F	.	.	4a
4G	.	.	4b
1A	[1e	1c	2cc
.	.	.	4b
.	.	.	4a
=18	=18	=18	=18
1.E	1e]	0B	1g
.	1e	.	[1b
2E	.	.	.
=19	=19	=19	=19
1G	1d	1B	1b]
1A	2c	[1e	1a
.	4B	.	.
.	4A	.	.
=20	=20	=20	=20
2E	1B	1e]	2g
2E	.	.	2g
2F	2r	1d	2a
2G	2g	.	2b
=21	=21	=21	=21
2A	2e	2.c	2cc
4G	2f	.	4b
4F	.	4d	4a
2E	2g	2e	2g
2A	2e	2c	2cc
=22	=22	=22	=22
2D	4d	1d	2b
.	4c	.	.
2F	4B	.	2.a
.	4A	.	.
1E	1B	[1e	.
.	.	.	4f
.	.	.	2g
=23	=23	=23	=23
1A	1c	1e]	2e
.	.	.	1a
1B	2f	1d	.
.	4e	.	2g#i
.	4d	.	.
=24	=24	=24	=24
2.A	2e	1c	2a
.	2a	.	1ee
4B	.	.	.
2c	2g	1r	.
2A	[2a	.	2ee
=25	=25	=25	=25
1d	4a]	0a	1dd
.	4g	.	.
.	4f	.	.
.	8eL	.	.
.	8dJ	.	.
2.A	2e	.	2.cc
.	[2f	.	.
4B	.	.	4dd
=26	=26	=26	=26
1c	2f]	1g	2ee
.	2e	.	2cc
2F	2f	2f	2dd
2c	2e	2g	[2ee
=27	=27	=27	=27
2B	2f	1b	4ee]
.	.	.	4a
2G	2g	.	1dd
[1A	2.e	[1a	.
.	.	.	4cc
.	4d	.	4b
=28	=28	=28	=28
1A]	2e	1a]	1cc
.	1f	.	.
1G	.	1r	1b
.	2e	.	.
=29	=29	=29	=29
2F	0f	0a	1a
4D	.	.	.
4E	.	.	.
4F	.	.	2r
4G	.	.	.
4A	.	.	[2ee
4B	.	.	.
=30	=30	=30	=30
2c	1r	2g	2ee]
2d	.	4f	2dd
.	.	4g	.
2.A	1a	4a	2cc
.	.	4b	.
.	.	[2cc	[2ee
4B	.	.	.
=31	=31	=31	=31
2c	2g	4cc]	2ee]
.	.	4b	.
2d	2f	4a	1dd
.	.	4g	.
1A	1e	2.a	.
.	.	.	2cc#i
.	.	4g	.
=32	=32	=32	=32
2.D	2d	4f	0dd
.	.	4e	.
.	2.f	4d	.
4E	.	8cL	.
.	.	8BJ	.
2F	.	2A	.
.	4e	.	.
2G	[2d	[2B	.
=33	=33	=33	=33
1E	2d]	2B]	1ee
.	2c	4A	.
.	.	4G	.
1D	4d	2A	4ff
.	4c	.	4ee
.	4B	[2d	4dd
.	4A	.	4cc
=34	=34	=34	=34
1G	1B	2d]	4b
.	.	.	4a
.	.	2.e	4g
.	.	.	4f
[1A	1c	.	2e
.	.	4c	.
.	.	2e	[2a
=35	=35	=35	=35
2A]	2r	2f	2a]
2G	2.B	2g	2b
1A	.	1e	1a
.	4c	.	.
.	2B	.	.
=36	=36	=36	=36
2D	4d	2r	2f
.	4c	.	.
2F	4B	2.a	2d
.	4A	.	.
1E	1B	.	1e
.	.	4a	.
.	.	2g	.
=37	=37	=37	=37
2.A	1c	2a	2e
.	.	2a	2.ee
4B	.	.	.
2c	1r	2g	.
.	.	.	4ee
2d	.	2f	2dd
=38	=38	=38	=38
1A	1r	2.e	2ee
.	.	.	2ee
.	.	4f	.
1r	2r	2g	2dd
.	[2a	2a	2cc
=39	=39	=39	=39
0r	4a]	1e	1b
.	4a	.	.
.	2g#i	.	.
.	2a	2.A	2a
.	2a	.	4g
.	.	4B	4f
=40	=40	=40	=40
2r	2g	2c	2e
2.d	2f	2d	2d
.	1e	1A	1a
4d	.	.	.
2c	.	.	.
=41	=41	=41	=41
2d	2.f	2r	2.a
2d	.	2.a	.
.	4f	.	4b
2c	2e	.	2cc
.	.	4a	.
2B	2d	2g	2dd
=42	=42	=42	=42
2.A	1e	2a	2cc
.	.	2a	2.ee
4B	.	.	.
2c	1r	2g	.
.	.	.	4ee
2d	.	2f	2dd
=43	=43	=43	=43
1A	1r	2.e	2ee
.	.	.	2ee
.	.	4f	.
1r	2r	2g	2dd
.	[2a	2a	2cc
=44	=44	=44	=44
0r	4a]	1e	1b
.	4a	.	.
.	2g#i	.	.
.	2a	2.A	2r
.	2a	.	[2ee
.	.	4B	.
=45	=45	=45	=45
2r	2g	2c	4ee]
.	.	.	4ee
2.d	2f	2d	2dd
.	1e	2A	2ee
4d	.	.	.
2c	.	[2a	2ee
=46	=46	=46	=46
2d	2f	4a]	2a
.	.	4a	.
2B	2d	2g	1dd
1A	1e	2a	.
.	.	2a	2cc#i
=47	=47	=47	=47
2.D	[0dl	2f	[0ddl
.	.	1a	.
4E	.	.	.
2F	.	.	.
2G	.	[2g	.
=48	=48	=48	=48
[0Dl	0d_	2g]	0dd_
.	.	4f	.
.	.	4e	.
.	.	[1fl	.
=49	=49	=49	=49
00D]	00d]	00f]	00dd]
=50||	=50||	=50||	=50||
*M2/1	*M2/1	*M2/1	*M2/1
*met(C|)	*met(C|)	*met(C|)	*met(C|)
!!section: Pleni sunt
!!!OMD: Pleni sunt
0r	1A	0r	0r
.	2A	.	.
.	2A	.	.
=51	=51	=51	=51
1r	1B	0r	0r
1A	4A	.	.
.	4B	.	.
.	4c	.	.
.	4d	.	.
=52	=52	=52	=52
2A	2e	0r	0r
2A	1f	.	.
1B	.	.	.
.	4e	.	.
.	4d	.	.
=53	=53	=53	=53
1.A	2.c	0r	0r
.	4d	.	.
.	4e	.	.
.	4f	.	.
4G	2e	.	.
4F	.	.	.
=54	=54	=54	=54
4G	4e	0r	0r
4F	4d	.	.
4E	1d	.	.
4D	.	.	.
1E	.	.	.
.	2c	.	.
=55	=55	=55	=55
2D	1f	0r	0r
2A	.	.	.
2A	2e	.	.
2A	2a	.	.
=56	=56	=56	=56
1B	4g	0r	0r
.	2f	.	.
.	8eL	.	.
.	8dJ	.	.
2A	2c	.	.
2d	2f	.	.
=57	=57	=57	=57
4c	1g	0r	0r
2B	.	.	.
8AL	.	.	.
8GJ	.	.	.
2F	2.a	.	.
4D	.	.	.
4E	4g	.	.
=58	=58	=58	=58
4F	2f	0r	0r
4G	.	.	.
2.A	2e	.	.
.	2f	.	.
4B	.	.	.
2c	[2e	.	.
=59	=59	=59	=59
1d	2e]	0r	0r
.	1d	.	.
1e	.	.	.
.	2c#i	.	.
=60	=60	=60	=60
4D	2d	0r	0r
4E	.	.	.
4F	1a	.	.
4G	.	.	.
4A	.	.	.
4B	.	.	.
2c	2g	.	.
=61	=61	=61	=61
2A	2.f	0r	0r
1d	.	.	.
.	4g	.	.
.	1e	.	.
2c#i	.	.	.
=62	=62	=62	=62
1d	2d	0r	0r
.	2B	.	.
2r	4A	.	.
.	4B	.	.
4A	4c	.	.
4B	4d	.	.
=63	=63	=63	=63
4c	4e	0r	0r
4d	4f	.	.
2.e	2g	.	.
.	2e	.	.
4d	.	.	.
4c	[2a	.	.
8BL	.	.	.
8AJ	.	.	.
=64	=64	=64	=64
1B	2a]	0r	0r
.	2g	.	.
1r	2f	.	.
.	[2e	.	.
=65	=65	=65	=65
1.A	2e]	0r	0r
.	2d	.	.
.	2c	.	.
2G	2B	.	.
=66	=66	=66	=66
2F	2A	0r	0r
2E	2c	.	.
2D	1B	.	.
[2d	.	.	.
=67	=67	=67	=67
2d]	1A	0r	0r
2c	.	.	.
2B	1r	.	.
[2A	.	.	.
=68	=68	=68	=68
2A]	1e	0r	0r
4G	.	.	.
4F	.	.	.
2G	1e	.	.
2A	.	.	.
=69	=69	=69	=69
4D	1f	0r	0r
4E	.	.	.
4F	.	.	.
4G	.	.	.
4A	1e	.	.
4B	.	.	.
[2c	.	.	.
=70	=70	=70	=70
4c]	2.c	0r	0r
4B	.	.	.
1A	.	.	.
.	4d	.	.
.	2e	.	.
4G	[2f	.	.
4F	.	.	.
=71	=71	=71	=71
2G	2f]	0r	0r
2A	1e	.	.
1F	.	.	.
.	2d	.	.
=72	=72	=72	=72
1E	[0e	0r	0r
2r	.	.	.
2A	.	.	.
=73	=73	=73	=73
2A	1e]	0r	0r
2G	.	.	.
2A	2r	.	.
2A	2e	.	.
=74	=74	=74	=74
2G	2e	0r	0r
2F	2d	.	.
1E	2e	.	.
.	2e	.	.
=75	=75	=75	=75
2r	2d	0r	0r
2A	2c	.	.
2A	1B	.	.
2G#i	.	.	.
=76	=76	=76	=76
1.A	2r	0r	0r
.	2e	.	.
.	2e	.	.
2B	2d	.	.
=77	=77	=77	=77
2c	2e	0r	0r
4B	2f	.	.
4A	.	.	.
4G	4g	.	.
4A	4f	.	.
4B	4d	.	.
4c	4e	.	.
=78	=78	=78	=78
2d	4f	0r	0r
.	4g	.	.
2.D	2a	.	.
.	2.A	.	.
4E	.	.	.
4F	.	.	.
4G	4B	.	.
=79	=79	=79	=79
4A	4c	0r	0r
4G	4d	.	.
4E	4e	.	.
4F	4d	.	.
4G	4B	.	.
4A	4c	.	.
4B	4d	.	.
4A	4e	.	.
=80	=80	=80	=80
2.F	4f	0r	0r
.	4e	.	.
.	2.c	.	.
4G	.	.	.
4A	.	.	.
4B	4d	.	.
4c	4e	.	.
4B	4f	.	.
=81	=81	=81	=81
2.G	4g	0r	0r
.	4f	.	.
.	2.d	.	.
4A	.	.	.
4B	.	.	.
4c	4e	.	.
4d	4f	.	.
4c	4g	.	.
=82	=82	=82	=82
4A	4a	0r	0r
4B	4g	.	.
4c	4e	.	.
4d	4f	.	.
2G	1g	.	.
2E	.	.	.
=83	=83	=83	=83
2F	2f	0r	0r
2G	1e	.	.
2A	.	.	.
2B	2d	.	.
=84	=84	=84	=84
2c	2e	0r	0r
2d	2f	.	.
2e	2g	.	.
[2f	[2a	.	.
=85	=85	=85	=85
4f]	4a]	0r	0r
4e	4g	.	.
4d	4f	.	.
4c	4e	.	.
4d	4f	.	.
4c	4e	.	.
4B	4d	.	.
4A	4c	.	.
=86	=86	=86	=86
4B	4d	0r	0r
4G	2e	.	.
2A	.	.	.
.	4c	.	.
4F	2d	.	.
2G	.	.	.
.	2e	.	.
4A	.	.	.
=87	=87	=87	=87
2F	4f	0r	0r
.	2d	.	.
2G	.	.	.
.	4e	.	.
2A	2c	.	.
2F	2f	.	.
=88	=88	=88	=88
4G	2e	0r	0r
4A	.	.	.
4F	1d	.	.
4G	.	.	.
1E	.	.	.
.	2c#i	.	.
=89	=89	=89	=89
00D	00d	00r	00r
=90||	=90||	=90||	=90||
*M2/1	*M2/1	*M2/1	*M2/1
*met(C|)	*met(C|)	*met(C|)	*met(C|)
!!section: Osanna
!!!OMD: Osanna
0r	0r	1f	0r
.	.	2g	.
.	.	2a	.
=91	=91	=91	=91
0r	0r	2.b-i	1r
.	.	4a	.
.	.	2g	2r
.	.	4f	2cc
.	.	4e	.
=92	=92	=92	=92
0r	0r	2d	2dd
.	.	2a	2ee
.	.	2a	2.ff
.	.	2a	.
.	.	.	4ee
=93	=93	=93	=93
0r	1r	2b-i	2dd
.	.	4a	4cc
.	.	4g	4b
.	2r	4f	2a
.	.	4g	.
.	2c	[2a	2cc
=94	=94	=94	=94
0r	2d	2a]	1b
.	2e	2g	.
.	2.f	2.a	2a
.	.	.	4r
.	4e	4g	4g
=95	=95	=95	=95
1r	2d	2f	2a
.	4c	4e	2b
.	4B	4d	.
1F	2A	2c	2cc
.	2c	2f	2a
=96	=96	=96	=96
2G	2B	1e	2b
2A	2A	.	2cc
2.B	1d	2r	1dd
.	.	2f	.
4A	.	.	.
=97	=97	=97	=97
2G	2r	1g	2dd
4F	2c	.	2ee
4E	.	.	.
2D	2d	2f	2ff
2A	2e	[2a	2ee
=98	=98	=98	=98
2A	2.f	4a]	2cc
.	.	4g	.
2A	.	2a	2cc
.	4e	.	.
2B-i	2d	2f	2dd
4A	4c	2g	2ee
4G	4B	.	.
=99	=99	=99	=99
4F	2A	2a	2ff
4G	.	.	.
1A	2c	4g	2ee
.	.	4f	.
.	1B	[1e	1r
2G	.	.	.
=100	=100	=100	=100
2A	1A	1e]	1cc
2A	.	.	.
2B	1r	2r	2dd
2A	.	[2a	2ee
=101	=101	=101	=101
1F	0r	4a]	2.ff
.	.	4g	.
.	.	1f	.
.	.	.	4ee
1G	.	.	2dd
.	.	2e	4cc
.	.	.	4b
=102	=102	=102	=102
1F	2r	2f	2a
.	2c	1a	2cc
1r	2d	.	1b
.	2e	2g#i	.
=103	=103	=103	=103
1F	2.f	1a	1a
.	4e	.	.
2G	2d	1r	1r
2A	2c	.	.
=104	=104	=104	=104
2.B-i	2.d	1f	0r
4A	4c	.	.
2G	4d	2g	.
.	4e	.	.
2F	2f	2a	.
=105	=105	=105	=105
1.G	2e	2.b-i	1r
.	1d	.	.
.	.	4a	.
.	.	2g	2r
2A	2c	4f	2cc
.	.	4e	.
=106	=106	=106	=106
2B	2g	2d	2dd
2c	4f	2g	2ee
.	4e	.	.
1d	2d	2f	2.ff
.	2f	2a	.
.	.	.	4ee
=107	=107	=107	=107
1G	4g	4b	2dd
.	4f	4a	.
.	4e	4g	4cc
.	4d	4f	4b
1A	2c	2e	2a
.	2c	[2a	2cc
=108	=108	=108	=108
1r	2d	2a]	1b
.	2e	2g	.
1D	2.f	2a	2.a
.	.	2d	.
.	4e	.	4g
=109	=109	=109	=109
1.D	2d	2.a	2f
.	4c	.	4e
.	4B	4g	4d
.	2A	2f	4f
.	.	.	4g
2C	2c	2e	[2a
=110	=110	=110	=110
2D	1B	2f	2a]
2E	.	2e	2g#i
2F	2A	2c	1a
2A	2A	2c	.
=111	=111	=111	=111
2G	2B	2d	1r
4F	2c	2e	.
4E	.	.	.
1D	1d	2.f	2r
.	.	.	[2f
.	.	4e	.
=112	=112	=112	=112
1G	1B	2d	2f]
.	.	4c	2e
.	.	4B	.
2F	2c	2A	2f
2F	2f	[2d	2a
=113	=113	=113	=113
2G	1e	2d]	2b-i
2A	.	2c	2a
2.B-i	2d	2d	1f
.	4r	2A	.
4A	4c	.	.
=114	=114	=114	=114
2G	2d	2B	2g
4F	2e	2c	2a
4E	.	.	.
2D	2f	4d	2b-i
.	.	4c	.
2F	2d	4B	[2a
.	.	4A	.
=115	=115	=115	=115
1E	1e	1B	2a]
.	.	.	2g
2D	2f	2d	1a
2d	2f	4r	.
.	.	4d	.
=116	=116	=116	=116
2c	2g	2e	1r
4B	2a	2f	.
4A	.	.	.
[1G	2.b-i	2g	2.dd
.	.	4f	.
.	4a	4e	4cc
=117	=117	=117	=117
1G]	2g	2d	2b
.	4f	2e	4a
.	4e	.	4g
2r	2d	2f	2a
2F	2f	2a	[2dd
=118	=118	=118	=118
2G	1e	2b-i	2dd]
2A	.	2a	2cc
2B-i	1d	[1f	2dd
4A	.	.	4cc
4G	.	.	4b
=119	=119	=119	=119
2F	2r	2f]	2a
2A	2c	2f	2cc
1G	2d	1g	1b
.	2e	.	.
=120	=120	=120	=120
1F	2.f	2c	1.a
.	.	1f	.
.	4e	.	.
1r	2d	.	.
.	4c	4e	2b
.	4B	4d	.
=121	=121	=121	=121
2r	2A	2e	1cc
2c	2c	1a	.
2d	2B-X	.	1r
2e	4A	2g	.
.	4G	.	.
=122	=122	=122	=122
2.f	2F	0a	2r
.	1f	.	2cc
4e	.	.	.
2d	.	.	2dd
4c	4e	.	2ee
4B	4d	.	.
=123	=123	=123	=123
2A	1c	2r	2ff
2c	.	2.a	1ee
1B-X	1d	.	.
.	.	4g	.
.	.	2g	[2dd
=124	=124	=124	=124
1A	1e	1a	2dd]
.	.	.	2cc
2B-i	2d	2f	2dd
4A	4c	2g	2ee
4G	4B	.	.
=125	=125	=125	=125
2F	2c	2a	2.ff
2D	1d	2f	.
.	.	.	4ee
1G	.	1g	2dd
.	2e	.	4cc
.	.	.	4b
=126	=126	=126	=126
1F	4f	1a	2a
.	4e	.	.
.	4c	.	2cc
.	4d	.	.
1G	2e	2.g	1b
.	[2d	.	.
.	.	4f	.
=127	=127	=127	=127
1A	2d]	1e	[0al
.	2c#i	.	.
4D	2.d	1f	.
4E	.	.	.
4F	.	.	.
4G	4e	.	.
=128	=128	=128	=128
1A	2f	2r	0a_
.	2e	2c	.
2D	2r	2d	.
2A	2c	2e	.
=129	=129	=129	=129
2D	2d	2f	0a_
2A	2e	2e	.
2r	2f	2r	.
2A	2e	2c	.
=130	=130	=130	=130
2D	2r	2d	0a_
2A	2c	2e	.
1D	2d	1f	.
.	2d	.	.
=131	=131	=131	=131
00A	00c	00e	00a]
=132||	=132||	=132||	=132||
*M2/1	*M2/1	*M2/1	*M2/1
*met(C|)	*met(C|)	*met(C|)	*met(C|)
!!section: Benedictus
!!!OMD: Benedictus
1.A	1r	0r	0r
.	[1e	.	.
2A	.	.	.
=133	=133	=133	=133
1G	2e]	1r	0r
.	2e	.	.
2.F	1d	[1a	.
4G	.	.	.
=134	=134	=134	=134
2A	2.c	2a]	0r
4G	.	2a	.
4F	4d	.	.
1E	4e	1g	.
.	2d	.	.
.	4c	.	.
=135	=135	=135	=135
1.D	[0d	2.f	0r
.	.	4g	.
.	.	2a	.
2G	.	2b-i	.
=136	=136	=136	=136
2F	0d]	2a	0r
2D	.	2f	.
2G	.	2g	.
2F	.	2a	.
=137	=137	=137	=137
2G	2r	2d	0r
4F	2c	2e	.
4E	.	.	.
2D	2d	2f	.
2C	2e	[2e	.
=138	=138	=138	=138
1D	1f	2e]	0r
.	.	1d	.
1E	1g	.	.
.	.	2c#i	.
=139	=139	=139	=139
0D	1.f	1d	0r
.	.	2r	.
.	4e	2f	.
.	4d	.	.
=140	=140	=140	=140
2r	2e	2g	0r
2F	2f	2a	.
2G	2r	2b-i	.
2A	2c	2a	.
=141	=141	=141	=141
2B-i	2d	4r	0r
.	.	4g	.
2A	1e	2a	.
2G	.	2b	.
2A	4d	2cc	.
.	4c	.	.
=142	=142	=142	=142
[0E	2.g	2b	0r
.	.	2g	.
.	4f	.	.
.	2e	2cc	.
.	2d	[2b	.
=143	=143	=143	=143
0E]	2c	2b]	0r
.	4B	1a	.
.	4A	.	.
.	1B	.	.
.	.	2g#i	.
=144	=144	=144	=144
1A	2A	[0a	0r
.	2c	.	.
2r	2d	.	.
2c	2e	.	.
=145	=145	=145	=145
2d	2f	0a_	0r
2e	2c	.	.
2f	2d	.	.
2c	2e	.	.
=146	=146	=146	=146
2d	2f	0a_	0r
2c	2.e	.	.
1d	.	.	.
.	4d	.	.
.	[2d	.	.
=147	=147	=147	=147
1A	2d]	0a_	0r
.	2c#i	.	.
2r	1d	.	.
[2D	.	.	.
=148	=148	=148	=148
4D]	2.A	0a_	0r
4E	.	.	.
4F	.	.	.
4G	4B	.	.
4A	4c	.	.
4G	4B	.	.
4A	4c	.	.
4B	4d	.	.
=149	=149	=149	=149
2c	4e	0a]	0r
.	4c	.	.
1d	2f	.	.
.	1e	.	.
2c#i	.	.	.
=150	=150	=150	=150
1d	2r	2.f	0r
.	2d	.	.
.	.	4g	.
1A	2e	1a	.
.	2f	.	.
=151	=151	=151	=151
2B	1g	1r	0r
2c	.	.	.
[1d	2.f	2r	.
.	.	2a	.
.	4e	.	.
=152	=152	=152	=152
2d]	4f	2b	0r
.	4g	.	.
2c	1a	2cc	.
1B	.	[1dd	.
.	2g#i	.	.
=153	=153	=153	=153
1A	2a	2dd]	0r
.	2a	2cc	.
2r	2g	2b	.
[2d	2f	2a	.
=154	=154	=154	=154
2d]	1e	2b	0r
2c	.	2cc	.
2d	1f	2f	.
2d	.	[2a	.
=155	=155	=155	=155
2c	2e	2a]	0r
2B	2d	2g	.
2.A	2c	2a	.
.	[2e	2a	.
4B	.	.	.
=156	=156	=156	=156
2c	2e]	2g	0r
2d	2d	2f	.
1A	2e	2e	.
.	2e	2c	.
=157	=157	=157	=157
2r	2d	2f	0r
1A	2c	2e	.
.	1B	2f	.
2G	.	2g	.
=158	=158	=158	=158
2A	1c	2c	0r
2A	.	1e	.
2G	2r	.	.
2F	[2a	2d	.
=159	=159	=159	=159
1E	2a]	2e	0r
.	2g	2e	.
1F	2a	2d	.
.	2a	2c	.
=160	=160	=160	=160
2r	2g	1B	0r
1d	2f	.	.
.	1e	2r	.
2c	.	2e	.
=161	=161	=161	=161
2d	2r	2f	0r
2d	2f	4e	.
.	.	4d	.
2c	4g	2e	.
.	4f	.	.
2B	4e	[2d	.
.	4d	.	.
=162	=162	=162	=162
[0A	2e	2d]	0r
.	1a	2c	.
.	.	2f	.
.	4g	4e	.
.	4f	4d	.
=163	=163	=163	=163
0A]	2e	2.c	0r
.	1d	.	.
.	.	4d	.
.	.	1e	.
.	2c#i	.	.
=164	=164	=164	=164
2D	2.d	2.f	0r
2.d	.	.	.
.	4e	4g	.
.	4f	1a	.
4B	4d	.	.
4c	4e	.	.
4d	4f	.	.
=165	=165	=165	=165
2G	2g	0g	0r
2.c	2.e	.	.
4A	4c	.	.
4B	4d	.	.
4c	4e	.	.
=166	=166	=166	=166
2F	2f	2.a	0r
2.A	4e	.	.
.	4d	8gL	.
.	.	8fJ	.
.	4c	1e	.
4F	4A	.	.
4G	4B	.	.
4A	4c	.	.
=167	=167	=167	=167
2D	4d	2.f	0r
.	4e	.	.
2.d	2.f	.	.
.	.	4g	.
.	.	1a	.
4B	4d	.	.
4c	4e	.	.
4d	4f	.	.
=168	=168	=168	=168
2G	2g	2b	0r
2A	1f	1a	.
1B	.	.	.
.	4e	2g	.
.	4d	.	.
=169	=169	=169	=169
2A	2.e	2a	0r
2.c	.	2e	.
.	4f	.	.
.	1g	4e	.
4A	.	4c	.
4B	.	4d	.
4c	.	4e	.
=170	=170	=170	=170
2d	2r	4f	0r
.	.	4g	.
2.c	2.e	2.a	.
4A	4c	4f	.
4B	4d	4g	.
4c	4e	4a	.
=171	=171	=171	=171
4d	4f	2b-i	0r
4c	4e	.	.
4B	1f	1a	.
4A	.	.	.
1B	.	.	.
.	4e	2g#i	.
.	4d	.	.
=172	=172	=172	=172
2A	2e	[0al	0r
2.d	2.f	.	.
4B	4d	.	.
4c	4e	.	.
4d	4f	.	.
=173	=173	=173	=173
2A	2c	0a_	0r
2d	2f	.	.
2c	2e	.	.
2d	[2f	.	.
=174	=174	=174	=174
[0Al	2f]	0a_	0r
.	4e	.	.
.	4d	.	.
.	2.c	.	.
.	4d	.	.
=175	=175	=175	=175
00A]	00el	00a]	00r
==	==	==	==
*-	*-	*-	*-
!!!system-decoration: [*]
!!!RDF**kern: i = editorial accidental
!!!RDF**kern: l = terminal long
!!!ENC: Lance Morrison
!!!END: 2025/10/29
!!!EED: Benjamin Ory
!!!EEV: 2025/10/29
!!!YEC: Copyright 2025 Benjamin Ory, All Rights Reserved
!!!ONB: Translated from MusicXML on 2025/10/29
!!!verovio: header encoded
!!!header-left: Edited by @{ENC} (2025)\n
!!!header-right:
!!!header-center: